static/images/icons/heuristic_evaluation.svg

<svg
	fill="none"
	height="80"
	viewBox="0 0 55 80"
	width="55"
	xmlns="http://www.w3.org/2000/svg"
>
	<g fill="currentColor">
		<path
			d="m53.4194 0h-52.12908c-.68817 0-1.29032.602151-1.29032 1.29032v77.41938c0 .6882.60215 1.2903 1.29032 1.2903h52.04298c.6882 0 1.2903-.6021 1.2903-1.2903v-77.41938c.0861-.688169-.5161-1.29032-1.2042-1.29032zm-1.2904 77.4194h-49.54835v-74.83875h49.46235v74.83875z"
		/>
		<path
			d="m10.1503 65.2042c.2581.4301.6882.6021 1.1183.6021s.8602-.258 1.1183-.6021l5.0753-8.6882c.3441-.6022.172-1.3763-.4301-1.8065-.6022-.344-1.3764-.172-1.8065.4302l-3.957 6.7957-1.1183-1.8065c-.34405-.6021-1.11824-.8602-1.80642-.4301-.60215.3441-.86021 1.1183-.4301 1.8064z"
		/>
		<path
			d="m21.8492 64.43h23.7419c.6882 0 1.2903-.6021 1.2903-1.2903s-.6021-1.2903-1.2903-1.2903h-23.7419c-.6882 0-1.2904.6021-1.2904 1.2903s.6022 1.2903 1.2904 1.2903z"
		/>
		<path
			d="m21.8492 58.5806h23.7419c.6882 0 1.2903-.6021 1.2903-1.2903 0-.6881-.6021-1.2903-1.2903-1.2903h-23.7419c-.6882 0-1.2904.6022-1.2904 1.2903 0 .6882.6022 1.2903 1.2904 1.2903z"
		/>
		<path
			d="m10.1502 24.774c.2581.4301.6882.6021 1.1183.6021s.8602-.258 1.1183-.6021l5.0753-8.6882c.3441-.6021.172-1.3763-.4301-1.8064-.6022-.3441-1.3764-.1721-1.8065.4301l-3.957 6.7957-1.1183-1.8065c-.34404-.6021-1.11823-.8602-1.8064-.4301s-.86022 1.1183-.43011 1.8065z"
		/>
		<path
			d="m21.8492 23.9998h23.7419c.6882 0 1.2903-.6021 1.2903-1.2903s-.6021-1.2903-1.2903-1.2903h-23.7419c-.6882 0-1.2904.6021-1.2904 1.2903s.6022 1.2903 1.2904 1.2903z"
		/>
		<path
			d="m21.8492 18.1505h23.7419c.6882 0 1.2903-.6022 1.2903-1.2904 0-.6881-.6021-1.2903-1.2903-1.2903h-23.7419c-.6882 0-1.2904.6022-1.2904 1.2903 0 .6882.6022 1.2904 1.2904 1.2904z"
		/>
		<path
			d="m10.1503 44.9891c.2581.4301.6882.6021 1.1183.6021s.8602-.258 1.1183-.6021l5.0753-8.6882c.3441-.6021.172-1.3763-.4301-1.8064-.6022-.3441-1.3764-.1721-1.8065.4301l-3.957 6.7957-1.1183-1.8065c-.34405-.6021-1.11824-.8602-1.80642-.4301-.60215.3441-.86021 1.1183-.4301 1.8065z"
		/>
		<path
			d="m21.8492 44.2149h23.7419c.6882 0 1.2903-.6021 1.2903-1.2903s-.6021-1.2903-1.2903-1.2903h-23.7419c-.6882 0-1.2904.6021-1.2904 1.2903s.6022 1.2903 1.2904 1.2903z"
		/>
		<path
			d="m21.8492 38.3656h23.7419c.6882 0 1.2903-.6022 1.2903-1.2904 0-.6881-.6021-1.2903-1.2903-1.2903h-23.7419c-.6882 0-1.2904.6022-1.2904 1.2903 0 .6882.6022 1.2904 1.2904 1.2904z"
		/>
	</g>
</svg>

<svg xmlns="http://www.w3.org/2000/svg" fill="currentColor" viewBox="0 0 55 80">
	<path d="M53.42 0H1.29C.602 0 0 .602 0 1.29v77.42C0 79.398.602 80 1.29 80h52.043c.689 0 1.29-.602 1.29-1.29V1.29C54.71.602 54.109 0 53.42 0zm-1.291 77.42H2.581V2.58h49.462v74.84z"/>
	<path d="M10.15 65.204c.258.43.688.602 1.119.602s.86-.258 1.118-.602l5.075-8.688c.344-.602.172-1.376-.43-1.806-.602-.345-1.376-.173-1.806.43l-3.957 6.795-1.119-1.806c-.344-.602-1.118-.86-1.806-.43-.602.344-.86 1.118-.43 1.806zM21.85 64.43H45.59c.688 0 1.29-.602 1.29-1.29s-.602-1.29-1.29-1.29H21.85c-.688 0-1.29.602-1.29 1.29s.602 1.29 1.29 1.29zM21.85 58.58H45.59c.688 0 1.29-.602 1.29-1.29 0-.688-.602-1.29-1.29-1.29H21.85c-.688 0-1.29.602-1.29 1.29 0 .688.602 1.29 1.29 1.29zM10.15 24.774c.258.43.688.602 1.118.602s.86-.258 1.119-.602l5.075-8.688c.344-.602.172-1.376-.43-1.807-.602-.344-1.376-.172-1.806.43l-3.958 6.796L10.15 19.7c-.344-.602-1.118-.86-1.806-.43s-.86 1.118-.43 1.806zM21.85 24H45.59c.688 0 1.29-.602 1.29-1.29s-.602-1.29-1.29-1.29H21.85c-.688 0-1.29.601-1.29 1.29S21.16 24 21.849 24zM21.85 18.15H45.59c.688 0 1.29-.602 1.29-1.29 0-.688-.602-1.29-1.29-1.29H21.85c-.688 0-1.29.602-1.29 1.29 0 .688.602 1.29 1.29 1.29zM10.15 44.99c.258.43.688.601 1.119.601s.86-.258 1.118-.602l5.075-8.688c.344-.602.172-1.376-.43-1.807-.602-.344-1.376-.172-1.806.43l-3.957 6.796-1.119-1.806c-.344-.602-1.118-.86-1.806-.43-.602.344-.86 1.118-.43 1.806zM21.85 44.215H45.59c.688 0 1.29-.602 1.29-1.29s-.602-1.29-1.29-1.29H21.85c-.688 0-1.29.601-1.29 1.29s.602 1.29 1.29 1.29zM21.85 38.366H45.59c.688 0 1.29-.603 1.29-1.29 0-.689-.602-1.291-1.29-1.291H21.85c-.688 0-1.29.602-1.29 1.29 0 .688.602 1.29 1.29 1.29z"/>
</svg>
